X:1
T:Three virgin nymphs
T:Thomas Weelkes
T:Three virgin nymphs
C:Thomas Weelkes
%%score [ 1 2 3 4 ]
L:1/8
Q:1/4=130
M:4/4
K:C
V:1 treble nm="Soprano 1" snm="S 1"
V:2 treble nm="Soprano 2" snm="S 2"
V:3 treble nm="Soprano 3" snm="S 3"
V:4 bass nm="Bass" snm="B"
V:1
 g4 g2 g2 | g6 e2 | f2 e2 d3 d | c4 z4 | z2 c2 d2 e2 | f2 g2 f2 c2 | d2 e2 f2 g2 | f2 z2 z2 e2 | %8
w: Three vir- gin|nymphs were|walk- ing all a-|lone,|were walk- ing|all a- lone, were|walk- ing all a-|lone, were|
 d2 d2 c4- | c4 B4 | c2 g3 f e2 | d4 e4 | z2 C2 G3 ^F | GABc d4 | d3 e f4 | ed c2 B4 | B2 d3 cde | %17
w: walk- ing all|_ a-|lone, all _ _|a- lone,|Till rude Sil-|va- nus chanc'd to meet|them, _ to|meet _ _ them,|Till rude Sil- va- nus|
 ^fg f2 g4- | g4 z2 d2 | d3 c dedd | c3 d c4 | z2 B2 c3 B | AGAB A2 G2 | G8 | G4 z4 | %25
w: chanc'd to meet them,|_ Till|rude Sil- va- nus chanc'd to|meet _ them,|Till rude Sil-|va- nus chanc'd to meet to|meet|them;|
[M:3/4][Q:3/4=195] d3 e d2 | e4 z2 | g3 d e^f |[M:4/4][Q:3/4=130] g4 z2 G2 | g2 z2 z2 e2 | %30
w: Ra- vish'd with|joy,|ra- vish'd with _|joy, he|leapt, ah|
 d4 z2 g2 | e2 z2 c2 B2 | z2 g2 e2 z2 | z4 e4 | e6 e2 | e4 z2 f2 | g2 e2 d4 | e8 | z4 g2 gg | %39
w: me! ah|me! ah me!|ah me!|But|miss- ing|her, thus|rude- ly greets|them:|Nymphs of the|
 g2 c2 efge | a4 g2 G2 | BcdB A2 d2- | d2 d2 c4 | z2 g2 g2 e2 | g4 z2 A2 | B2 G2 A2 B2 | %46
w: woods, come back a- gain and|kiss me, come|back a- gain and kiss me,|_ kiss me!|Sil- va- nus|calls, come|back a- gain and|
 GG g2 a3 a | g2 e2 d2 e2 | z2 f2 e2 c2 | g2 d2 e4 | d4 z4 | z2 g2 f2 d2 | e2 f2 g2 d2- | %53
w: bliss me, come back a-|gain and bliss me,|come back a-|gain and bliss|me,|come back a-|gain and bliss me,|
 d2 a2 g2 e2 | d2 e2 d4 | e8 | z4 g2 gg | g2 c2 efge | a4 g2 G2 | BcdB A2 d2- | d2 d2 c4 | %61
w: _ come back a-|gain and bliss|me!|Nymphs of the|woods, come back a- gain and|kiss me, come|back a- gain and kiss me,|_ kiss me!|
 z2 g2 g2 e2 | g4 z2 A2 | B2 G2 A2 B2 | GG g2 a3 a | g2 e2 d2 e2 | z2 f2 e2 c2 | g2 d2 e4 | d4 z4 | %69
w: Sil- va- nus|calls, come|back a- gain and|bliss me, come back a-|gain and bliss me,|come back a-|gain and bliss|me,|
 z2 g2 f2 d2 | e2 f2 g2 d2- | d2 a2 g2 e2 | d2 e2 d4 | e8 |] %74
w: come back a-|gain and bliss me,|_ come back a-|gain and bliss|me!|
V:2
 e4 e2 e2 | e6 e2 | dd c4 B2 | c4 z2 c2 | d2 e2 f2 g2 | f2 c2 d2 e2 | f2 g2 f2 z2 | z4 z2 c2 | %8
w: Three vir- gin|nymphs were|walk- ing all a-|lone, were|walk- ing all a-|lone, were walk- ing|all a- lone,|were|
 _B4 c4 | G6 G2 | G8 | z2 B2 c3 B | cde^f g2 GA | Bc d2 B2 G2 | F3 E D4 | A4 z2 D2 | G3 ^F GABc | %17
w: walk- ing|all a-|lone,|Till rude Sil-|va- nus chanc'd to meet to _|meet _ _ them, to|meet _ _|them, Till|rude Sil- va- nus chanc'd to|
 d2 d2 D2 d2- | dcde ^fg f2 | g4 G2 G2- | GFED E2 E2 | D2 G4 A2 | c3 B cdef | g2 e2 d4 | e4 z4 | %25
w: meet them, Till rude|_ Sil- va- nus chanc'd to meet|them, Till rude|_ Sil- va- nus chanc'd to|meet them, Till|rude Sil- va- nus chanc'd to|meet to meet|them;|
[M:3/4] B3 c B2 | c4 z2 | e3 d c2 |[M:4/4] B8 | G2 g2 z2 c2 | B4 g2 e2 | z2 g2 e2 z2 | g2 e2 z4 | %33
w: Ra- vish'd with|_|ra- vish'd with|joy,|he leapt, ah|me! ah me!|ah me!|ah me!|
 z4 c4 | B6 B2 | ^c4 z2 A2 | B2 c4 B2 | c8 | z4 d2 dd | e2 e2 cdec | f4 e4 | z2 G2 ^FGAF | %42
w: But|miss- ing|her, thus|rude- ly greets|them:|Nymphs of the|woods, come back a- gain and|kiss me,|come back a- gain and|
 G4 C2 G2 | G4 G4 | z2 g2 g2 e2 | g4 z2 d2 | e3 e c2 d2 | G4 G2 g2 | f2 d2 g2 e2 | d4 c4 | %50
w: kiss me, and|kiss me!|Sil- va- nus|calls, come|back a- gain and|bliss me, come|back a- gain and|bliss me,|
 z2 g2 e2 c2 | d2 B2 d4 | A2 A2 G4 | d2 f2 e2 c2 | BB c4 B2 | c8 | z4 d2 dd | e2 e2 cdec | f4 e4 | %59
w: come back a-|gain _ a-|gain and bliss|me, come back a-|gain and bliss _|me!|Nymphs of the|woods, come back a- gain and|kiss me,|
 z2 G2 ^FGAF | G4 C2 G2 | G4 G4 | z2 g2 g2 e2 | g4 z2 d2 | e3 e c2 d2 | G4 G2 g2 | f2 d2 g2 e2 | %67
w: come back a- gain and|kiss me, and|kiss me!|Sil- va- nus|calls, come|back a- gain and|bliss me, come|back a- gain and|
 d4 c4 | z2 g2 e2 c2 | d2 B2 d4 | A2 A2 G4 | d2 f2 e2 c2 | B2 c4 B2 | c8 |] %74
w: bliss me,|come back a-|gain _ a-|gain and bliss|me, come back a-|gain and bliss|me!|
V:3
 c4 c2 c2 | c6 c2 | _B2 c2 G3 G | c8 | z4 z2 c2 | d2 e2 f2 g2 | f2 c2 d2 e2 | f2 g2 f2 e2 | f4 e4 | %9
w: Three vir- gin|nymphs were|walk- ing all a-|lone,|were|walk- ing all a-|lone, were walk- ing|all a- lone, were|walk- ing|
 d6 d2 | e3 d e2 c2 | B2 z2 G2 G2- | G^FGA Bc d2- | d2 G4 z2 | D2 A3 GAB | cd ef g2 g2 | d4 g4 | %17
w: all a-|lone, _ all a-|lone, Till rude|_ Sil- va- nus chanc'd to meet|_ them,|Till rude Sil- va- nus|chanc'd to meet _ them, to|meet them,|
 z2 A2 B3 A | Bc B2 A4 | B4 B4 | G2 G3 FGA | Bc d2 e2 f2 | fg f4 e2 | d2 c4 B2 | c4 z4 | %25
w: Till rude Sil-|va- nus chanc'd to|meet them,|Till rude Sil- va- nus|chanc'd to meet them, Till|rude Sil- va- nus|chanc'd to meet|them;|
[M:3/4] G3 E G2 | C4 z2 | c3 B A2 |[M:4/4] G4 G2 g2 | z2 d2 c4 | z2 g2 e2 z2 | c2 d2 z2 g2 | %32
w: Ra- vish'd with|_|ra- vish'd with|joy, he leapt,|ah me!|ah me!|ah me! ah|
 d2 z2 g2 e2 | z4 A4 | ^G6 G2 | A4 z2 d2 | G2 G2 G4 | G8 | z4 B2 BB | c6 G2 | FGAF c4 | d4 z2 A2 | %42
w: me! ah me!|But|miss- ing|her, thus|rude- ly greets|them:|Nymphs of the|woods, come|back a- gain and kiss|me, come|
 BcdB e4 | d4 z2 c2 | c2 B2 c4 | z2 c2 d3 d | c2 c2 A2 A2 | z2 c2 B2 G2 | d2 A2 G4 | B3 A G4 | %50
w: back a- gain and kiss|me! Sil-|va- nus calls,|come back a-|gain and bliss me,|come back a-|gain and bliss|me, and bliss|
 G4 z2 c2 | B2 G2 A2 B2 | c4 B2 _B2 | A2 F2 G2 G2 | G8 | G8 | z4 B2 BB | c6 G2 | FGAF c4 | %59
w: me, come|back a- gain and|bliss me, come|back a- gain and|bliss|me!|Nymphs of the|woods, come|back a- gain and kiss|
 d4 z2 A2 | BcdB e4 | d4 z2 c2 | c2 B2 c4 | z2 c2 d3 d | c2 c2 A2 A2 | z2 c2 B2 G2 | d2 A2 G4 | %67
w: me, come|back a- gain and kiss|me! Sil-|va- nus calls,|come back a-|gain and bliss me,|come back a-|gain and bliss|
 B3 A G4 | G4 z2 c2 | B2 G2 A2 B2 | c4 B2 _B2 | A2 F2 G2 G2 | G2 G2 G4 | G8 |] %74
w: me, and bliss|me, come|back a- gain and|bliss me, come|back a- gain and|bliss and bliss|me!|
V:4
 z8 | z8 | z8 | z8 | z8 | z8 | z8 | z8 | z8 | z4 z2 G,,2 | C,3 B,, C,D,E,F, | G,4 C,4 | z4 z4 | %13
w: |||||||||Till|rude Sil- va- nus chanc'd to|meet them,||
 z4 z2 G,,2 | D,3 ^C, D,E,F,G, | A,4 G,4 | z8 | z2 D,2 G,3 ^F, | G,A,B,C D4 | G,4 z2 G,,2 | %20
w: Till|rude Sil- va- nus chanc'd to|meet them,||Till rude Sil-|va- nus chanc'd to meet|them, Till|
 C,3 B,, C,D,E,F, | G,2 G,2 C,2 F,2- | F,E,F,G, A,B, C2 | B,2 C2 G,4 | C,4 z4 |[M:3/4] z6 | z6 | %27
w: rude Sil- va- nus chanc'd to|meet them, Till rude|_ Sil- va- nus chanc'd to meet|them, to meet|them;|||
 z6 |[M:4/4] z2 G,,2 G,2 z2 | C, C2 B, C2 z C, | G,2 z G,, C,2 z C, | C3 B, CC, G,2- | %32
w: |he leapt,|and snatch'd at one, he|leapt, he leapt, he|leapt, and snatch'd at one,|
 G,B, C3 CEC | G,4 A,4 | E,6 E,2 | A,4 z2 F,2 | E,2 C,2 G,4 | C,4 C2 CC | C2 C,2 G,A,B,G, | %39
w: _ and snatch'd and snatch'd at|one, But|miss- ing|her, thus|rude- ly greets|them: Nymphs of the|woods, come back a- gain and|
 C4 C,4 | z4 z2 C,2 | G,A,B,G, D4 | G,4 z2 C2 | C2 B,2 C4 | z2 G,2 A,3 A, | G,2 E,2 F,2 G,2 | %46
w: kiss me,|come|back a- gain and kiss|me! Sil-|va- nus calls,|come back a-|gain and bliss _|
 C,4 z2 F,2 | E,2 C,2 G,2 E,2 | D,4 E,3 F, | G,4 C,2 C2 | B,2 G,2 A,3 A, | G,4 D,4 | z4 z2 G,2 | %53
w: me, come|back a- gain and|bliss me, and|bliss me, come|back a- gain and|bliss me,|come|
 F,2 D,2 E,3 F, | G,8 | C,4 C2 CC | C2 C,2 G,A,B,G, | C4 C,4 | z4 z2 C,2 | G,A,B,G, D4 | %60
w: back a- gain and|bliss|me, Nymphs of the|woods, come back a- gain and|kiss me,|come|back a- gain and kiss|
 G,4 z2 C2 | C2 B,2 C4 | z2 G,2 A,3 A, | G,2 E,2 F,2 G,2 | C,4 z2 F,2 | E,2 C,2 G,2 E,2 | %66
w: me! Sil-|va- nus calls,|come back a-|gain and bliss _|me, come|back a- gain and|
 D,4 E,3 F, | G,4 C,2 C2 | B,2 G,2 A,3 A, | G,4 D,4 | z4 z2 G,2 | F,2 D,2 E,3 F, | G,8 | C,8 |] %74
w: bliss me, and|bliss me, come|back a- gain and|bliss me,|come|back a- gain and|bliss|me!|

